X:90
M:C
L:1/8
Q:1/4=100
K:D Minor
c>gg>f ecc>e|f>ed>c B/A/d/c/ B/A/G/F/|EBA>^C D2 D||E|F>GA>G F>G A<f|
b>ag>f ea/d/ ^cB/A/|f>ed>c B/A/d/c/ B/A/G/F/|G/F/E/D/ A^C D2 D||

